X:1
T: Dorset Four Hand Reel
N:
C:
S:
A:
O:
R:
M:4/4
K:G
I:speed 200
%W: A1                                                                      I
% voice 1 (1 lines, 38 notes)
K:G
M:4/4
L:1/16
B2 A2 |G4 B4 d4 c2 B2 |c4 e4 c4 e4 |G4 B4 d6 c2 |B4 A4 A4 B2 A2 |G4 B4 d4 c2 B2 |c4 e4 c4 e4 |G4 B4 d6 c2 |B4 G4 G4 B2 A2 |
%W: A2
% voice 1 (1 lines, 35 notes)
G4 B4 d4 c2 B2 |c4 e4 c4 e4 |G4 B4 d6 c2 |B4 A4 A4 B2 A2 |G4 B4 d4 c2 B2 |c4 e4 c4 e4 |G4 B4 d6 c2 |B4 G4 G4 d4 |
%W: B1
% voice 1 (1 lines, 38 notes)
g4 g4 g2 f2 e4 |d4 d4 d2 c2 B4 |A4 A2 B2 c4 d4 |e4 d4 d4 e2 f2 |g4 g4 g2 f2 e4 |d4 d4 d2 c2 B4 |A4 A2 B2 c4 A4 |G8 G4 d4 |
%W: B2
% voice 1 (1 lines, 37 notes)
g4 g4 g2 f2 e4 |d4 d4 d2 c2 B4 |A4 A2 B2 c4 d4 |e4 d4 d4 e2 f2 |g4 g4 g2 f2 e4 |d4 d4 d2 c2 B4 |A4 A2 B2 c4 A4 |G8 G4 ||
%W: C1                                                                      II
% voice 1 (1 lines, 45 notes)
K:A
E4 |A4 c2 e2 a2 e2 c2 A2 |d4 f4 d4 f4 |A4 c2 e2 a2 e2 c2 A2 |B4 e4 B4 e4 |A4 c2 e2 a2 e2 c2 A2 |d4 f4 d4 f4 |e4 g2 f2 e2 d2 c2 B2 |A4 a4 a4 E4 |
%W: C2
% voice 1 (1 lines, 45 notes)
A4 c2 e2 a2 e2 c2 A2 |d4 f4 d4 f4 |A4 c2 e2 a2 e2 c2 A2 |B4 e4 B4 e4 |A4 c2 e2 a2 e2 c2 A2 |d4 f4 d4 f4 |e4 g2 f2 e2 d2 c2 B2 |A4 a4 a4 c2 d2 |
%W: D1
% voice 1 (1 lines, 36 notes)
e4 c4 e4 c4 |f4 d4 f4 d4 |e4 c4 e4 c4 |B4 e4 e6 e2 |e4 c4 e4 c4 |f4 d4 f4 d4 |e4 g2 f2 e2 d2 c2 B2 |A4 a4 a4 c2 d2 |
%W: D2
% voice 1 (1 lines, 34 notes)
e4 c4 e4 c4 |f4 d4 f4 d4 |e4 c4 e4 c4 |B4 e4 e6 e2 |e4 c4 e4 c4 |f4 d4 f4 d4 |e4 g2 f2 e2 d2 c2 B2 |A4 a4 a4 ||
